images/briefcase.svg

<svg enable-background="new 0 0 390 390" height="512" viewBox="0 0 390 390" width="512" xmlns="http://www.w3.org/2000/svg"><path d="m365 85h-55v-55c0-8.284-6.716-15-15-15h-200c-8.284 0-15 6.716-15 15v55h-55c-13.807 0-25 11.193-25 25v240c0 13.807 11.193 25 25 25h340c13.807 0 25-11.193 25-25v-240c0-13.807-11.193-25-25-25zm-335 260v-124.41l19.895 19.41h35.105v15h30v-15h160v15h30v-15h32.898l22.102-20.56v125.56zm330-230v63.467l-33.898 31.533h-21.102v-15h-30v15h-160v-15h-30v15h-22.895l-32.105-31.322v-63.678zm-250-70h170v40h-170z" fill="#eceff1"/></svg>

<?xml version="1.0"?>
<svg xmlns="http://www.w3.org/2000/svg" xmlns:xlink="http://www.w3.org/1999/xlink" version="1.1" id="Capa_1" x="0px" y="0px" viewBox="0 0 390 390" style="enable-background:new 0 0 390 390;" xml:space="preserve" width="512px" height="512px"><g><g id="XMLID_30_">
	<path id="XMLID_794_" d="M365,85h-55V30c0-8.284-6.716-15-15-15H95c-8.284,0-15,6.716-15,15v55H25C11.193,85,0,96.193,0,110v240   c0,13.807,11.193,25,25,25h340c13.807,0,25-11.193,25-25V110C390,96.193,378.807,85,365,85z M30,345V220.59L49.895,240H85v15h30   v-15h160v15h30v-15h32.898L360,219.44V345H30z M360,115v63.467L326.102,210H305v-15h-30v15H115v-15H85v15H62.105L30,178.678V115   H360z M110,45h170v40H110V45z" data-original="#000000" class="active-path" data-old_color="#eceff1" fill="#eceff1"/>
</g></g> </svg>
